src/assets/outline/CloseSquare.svg

<svg width="24" height="24" viewBox="0 0 24 24"  xmlns="http://www.w3.org/2000/svg">
<path d="M9.16986 15.5804C8.97986 15.5804 8.78986 15.5104 8.63986 15.3604C8.34986 15.0704 8.34986 14.5904 8.63986 14.3004L14.2999 8.64035C14.5899 8.35035 15.0699 8.35035 15.3599 8.64035C15.6499 8.93035 15.6499 9.41035 15.3599 9.70035L9.69986 15.3604C9.55986 15.5104 9.35986 15.5804 9.16986 15.5804Z" />
<path d="M14.8299 15.5804C14.6399 15.5804 14.4499 15.5104 14.2999 15.3604L8.63986 9.70035C8.34986 9.41035 8.34986 8.93035 8.63986 8.64035C8.92986 8.35035 9.40986 8.35035 9.69986 8.64035L15.3599 14.3004C15.6499 14.5904 15.6499 15.0704 15.3599 15.3604C15.2099 15.5104 15.0199 15.5804 14.8299 15.5804Z" />
<path d="M15 22.75H9C3.57 22.75 1.25 20.43 1.25 15V9C1.25 3.57 3.57 1.25 9 1.25H15C20.43 1.25 22.75 3.57 22.75 9V15C22.75 20.43 20.43 22.75 15 22.75ZM9 2.75C4.39 2.75 2.75 4.39 2.75 9V15C2.75 19.61 4.39 21.25 9 21.25H15C19.61 21.25 21.25 19.61 21.25 15V9C21.25 4.39 19.61 2.75 15 2.75H9Z" />
</svg>

<?xml version="1.0" encoding="UTF-8"?>
<svg width="24" height="24" viewBox="0 0 24 24" xmlns="http://www.w3.org/2000/svg">
 <path d="m9.1699 15.58c-0.19 0-0.38-0.07-0.53-0.22-0.29-0.29-0.29-0.77 0-1.06l5.66-5.66c0.29-0.29 0.77-0.29 1.06 0s0.29 0.77 0 1.06l-5.66 5.66c-0.14 0.15-0.34 0.22-0.53 0.22z"/>
 <path d="m14.83 15.58c-0.19 0-0.38-0.07-0.53-0.22l-5.66-5.66c-0.29-0.29-0.29-0.77 0-1.06s0.77-0.29 1.06 0l5.66 5.66c0.29 0.29 0.29 0.77 0 1.06-0.15 0.15-0.34 0.22-0.53 0.22z"/>
 <path d="m15 22.75h-6c-5.43 0-7.75-2.32-7.75-7.75v-6c0-5.43 2.32-7.75 7.75-7.75h6c5.43 0 7.75 2.32 7.75 7.75v6c0 5.43-2.32 7.75-7.75 7.75zm-6-20c-4.61 0-6.25 1.64-6.25 6.25v6c0 4.61 1.64 6.25 6.25 6.25h6c4.61 0 6.25-1.64 6.25-6.25v-6c0-4.61-1.64-6.25-6.25-6.25h-6z"/>
</svg>
